X: 3348
T: WILLIE DONALDSON'S HORNPIPE
C: Hugh Dunlop
R: Hornpipe.
%R: hornpipe, reel
B: James Kerr "Merry Melodies" v.3 p.38 #348
Z: 2016 John Chambers <jc:trillian.mit.edu>
M: C
L: 1/8
K: G
(BA) |\
BABG DGBG | FGAB c2(BA) |\
Bcde gfge | dcBc A2(dc) |\
BABG DGBG | FGAB c2(BA) |\
Bdef gdec | B2G2 G2 :|
|: d2 |\
gfga gdBd | gbag fedB |\
AFDF ABcA | BGDG BcdB |\
gfga gdBd | gbag fedc |\
cBcd efaf | g2g2 g2 :|

%%sep 1 1 500
%%sep 1 1 500

